!!!OTL: 371. Der Knabe und ein Veilchen.
!!!ARE: Europa, Mitteleuropa, Deutschland
!!!SCT: B0371A
!!!YEM: Copyright 1995, estate of Helmut Schaffrath.
**kern
*ICvox
*Ivox
*M6/8
*k[f#]
*G:
=1
!LO:TX:a:t=Angenehm.
{4g
8b/
4g
8b/
=2
(4dd
8cc)
4a
8r}
=3
{8bL
8ccJ
8a
4g
16bL
16aJ
=4
4.g
!LO:N:vis=4
4.r}
=5
{4g
8b/
4g
8b/
=6
(4dd
8cc)
4a
8r}
=7
{8bL
8ccJ
8a
4g
16bL
16aJ
=8
4.g
!LO:N:vis=4
4.r}
=9
{4dd
8dd
(16cc#Lqq
16eeJqq
4dd)
16bL
16gJ
=10
(4f#
16gL
16aJ)
4g
8r}
=11
{8aL
8bJ
8cc
8bL
8gJ
8dd
=12
(4dd
8b)
4a
8r}
=13||
{4g
8b/
4g
8b/
=14
4.dd
16eeqqL
16ddqqJ
4cc
8r}
=15
{8bL
8ccJ
8a
4g
16bL
16aJ
=16
4.g
4r
8r}
==
!!!AGN: Liebes - Lied, Liebes - Lust
!!!GTL: Liebeslieder - Liebeslust
!!!ONB: ESAC (Essen Associative Code) Database: BOEHME
!!!AMT: compound duple
!!!AIN: vox
!!!EED: Helmut Schaffrath
!!!EEV: 1.0
!!@@COMMENT:"Als Curiosum mag noc eine nicht üble Mel. von Christian Rheinecke hier sehen, der Gastwirth zum "schwarzen 
!!Ochsen" in Memmingen, Sänger, Clavierspieler und gefälliger Liederkomponist war, auch seine Musik zum Drucke 
!!bringen konnte."
!!@@END:
!!!URL-scan: https://archive.org/details/BoehmeVtLieder1895/page/n309/mode/2up
!!!ENC: Anna Maria Matuszewska
!!!EEV: 2024/05/07
*-
